newicons/fboard.svg

<?xml version="1.0" encoding="UTF-8" standalone="no"?>
<svg
   viewBox="0 0 48 48"
   version="1.1"
   id="svg18"
   sodipodi:docname="fboard.svg"
   inkscape:version="1.1.2 (0a00cf5339, 2022-02-04)"
   xmlns:inkscape="http://www.inkscape.org/namespaces/inkscape"
   xmlns:sodipodi="http://sodipodi.sourceforge.net/DTD/sodipodi-0.dtd"
   xmlns="http://www.w3.org/2000/svg"
   xmlns:svg="http://www.w3.org/2000/svg">
  <sodipodi:namedview
     id="namedview20"
     pagecolor="#505050"
     bordercolor="#ffffff"
     borderopacity="1"
     inkscape:pageshadow="0"
     inkscape:pageopacity="0"
     inkscape:pagecheckerboard="1"
     showgrid="true"
     inkscape:zoom="8"
     inkscape:cx="33.0625"
     inkscape:cy="25.75"
     inkscape:window-width="1366"
     inkscape:window-height="692"
     inkscape:window-x="0"
     inkscape:window-y="0"
     inkscape:window-maximized="1"
     inkscape:current-layer="svg18"
     showguides="true">
    <inkscape:grid
       type="xygrid"
       id="grid1260" />
  </sodipodi:namedview>
  <defs
     id="defs4">
    <style
       id="style2">.c{fill:none;stroke:#000;stroke-linecap:round;stroke-linejoin:round;}</style>
  </defs>
  <g
     id="a"
     transform="matrix(0.53350638,0,0,0.53350638,11.841908,3.6848452)"
     style="stroke:#ffffff;stroke-width:1.87439;stroke-linecap:round;stroke-miterlimit:4;stroke-dasharray:none;stroke-opacity:1;stroke-linejoin:round">
    <g
       id="g12"
       style="stroke:#ffffff;stroke-width:1.87439;stroke-linecap:round;stroke-miterlimit:4;stroke-dasharray:none;stroke-opacity:1;stroke-linejoin:round">
      <line
         class="c"
         x1="17.938101"
         y1="11.85"
         x2="30.061899"
         y2="11.85"
         id="line6"
         style="stroke:#ffffff;stroke-width:1.87439;stroke-linecap:round;stroke-miterlimit:4;stroke-dasharray:none;stroke-opacity:1;stroke-linejoin:round" />
      <line
         class="c"
         x1="17.938101"
         y1="24"
         x2="25.842699"
         y2="24"
         id="line8"
         style="stroke:#ffffff;stroke-width:1.87439;stroke-linecap:round;stroke-miterlimit:4;stroke-dasharray:none;stroke-opacity:1;stroke-linejoin:round" />
      <line
         class="c"
         x1="17.938101"
         y1="11.85"
         x2="17.938101"
         y2="36.150002"
         id="line10"
         style="stroke:#ffffff;stroke-width:1.87439;stroke-linecap:round;stroke-miterlimit:4;stroke-dasharray:none;stroke-opacity:1;stroke-linejoin:round" />
    </g>
  </g>
  <path
     class="a"
     d="M 13.1675,18.573 H 7.6399 A 2.0779,2.0779 0 0 0 5.562,20.6508 V 40.4222 A 2.0779,2.0779 0 0 0 7.6399,42.5 h 32.72 a 2.0779,2.0779 0 0 0 2.0779,-2.0778 V 20.6508 A 2.0779,2.0779 0 0 0 40.3599,18.573 h -5.284"
     id="path6"
     style="fill:none;stroke:#ffffff;stroke-linecap:round;stroke-linejoin:round;stroke-width:1;stroke-miterlimit:4;stroke-dasharray:none;stroke-opacity:1" />
  <rect
     class="a"
     x="14.0995"
     y="35.763401"
     width="20.0445"
     height="3.3269999"
     rx="0.4208"
     id="rect8"
     style="fill:none;stroke:#ffffff;stroke-linecap:round;stroke-linejoin:round;stroke-width:1;stroke-miterlimit:4;stroke-dasharray:none;stroke-opacity:1" />
  <rect
     class="a"
     x="10.733201"
     y="29.780001"
     width="3.3663001"
     height="3.3663001"
     rx="0.4208"
     id="rect10"
     style="fill:none;stroke:#ffffff;stroke-linecap:round;stroke-linejoin:round;stroke-width:1;stroke-miterlimit:4;stroke-dasharray:none;stroke-opacity:1" />
  <rect
     class="a"
     x="16.585899"
     y="29.780001"
     width="3.3663001"
     height="3.3663001"
     rx="0.4208"
     id="rect12"
     style="fill:none;stroke:#ffffff;stroke-linecap:round;stroke-linejoin:round;stroke-width:1;stroke-miterlimit:4;stroke-dasharray:none;stroke-opacity:1" />
  <path
     class="a"
     d="m 25.805,30.3553 v 2.37 a 0.4208,0.4208 0 0 1 -0.4208,0.4208 h -2.5243 a 0.4207,0.4207 0 0 1 -0.4207,-0.4208 v -2.37"
     id="path14"
     style="fill:none;stroke:#ffffff;stroke-linecap:round;stroke-linejoin:round;stroke-width:1;stroke-miterlimit:4;stroke-dasharray:none;stroke-opacity:1" />
  <rect
     class="a"
     x="28.291401"
     y="29.780001"
     width="3.3663001"
     height="3.3663001"
     rx="0.4208"
     id="rect16"
     style="fill:none;stroke:#ffffff;stroke-linecap:round;stroke-linejoin:round;stroke-width:1;stroke-miterlimit:4;stroke-dasharray:none;stroke-opacity:1" />
  <rect
     class="a"
     x="34.1441"
     y="29.780001"
     width="3.3663001"
     height="3.3663001"
     rx="0.4208"
     id="rect18"
     style="fill:none;stroke:#ffffff;stroke-linecap:round;stroke-linejoin:round;stroke-width:1;stroke-miterlimit:4;stroke-dasharray:none;stroke-opacity:1" />
  <rect
     class="a"
     x="10.733201"
     y="23.796499"
     width="3.3663001"
     height="3.3663001"
     rx="0.4208"
     id="rect20"
     style="fill:none;stroke:#ffffff;stroke-linecap:round;stroke-linejoin:round;stroke-width:1;stroke-miterlimit:4;stroke-dasharray:none;stroke-opacity:1" />
  <path
     class="a"
     d="M 18.2754,27.1628 H 17.0067 A 0.4208,0.4208 0 0 1 16.5859,26.742 v -0.8747"
     id="path22"
     style="fill:none;stroke:#ffffff;stroke-linecap:round;stroke-linejoin:round;stroke-width:1;stroke-miterlimit:4;stroke-dasharray:none;stroke-opacity:1" />
  <path
     class="a"
     d="m 31.6577,25.8673 v 0.8747 a 0.4208,0.4208 0 0 1 -0.4208,0.4208 h -1.2687"
     id="path24"
     style="fill:none;stroke:#ffffff;stroke-linecap:round;stroke-linejoin:round;stroke-width:1;stroke-miterlimit:4;stroke-dasharray:none;stroke-opacity:1" />
  <rect
     class="a"
     x="34.1441"
     y="23.796499"
     width="3.3663001"
     height="3.3663001"
     rx="0.4208"
     id="rect26"
     style="fill:none;stroke:#ffffff;stroke-linecap:round;stroke-linejoin:round;stroke-width:1;stroke-miterlimit:4;stroke-dasharray:none;stroke-opacity:1" />
  <path
     class="a"
     d="M 34.2524,23.8775 24.1218,31.646 13.9912,23.8775 a 2.1036,2.1036 0 0 1 -0.8237,-1.67 V 7.1832 A 1.6832,1.6832 0 0 1 14.8507,5.5 h 18.5422 a 1.6832,1.6832 0 0 1 1.6832,1.6832 V 22.208 a 2.1036,2.1036 0 0 1 -0.8237,1.6695 z"
     id="path28"
     style="fill:none;stroke:#ffffff;stroke-linecap:round;stroke-linejoin:round;stroke-width:1;stroke-miterlimit:4;stroke-dasharray:none;stroke-opacity:1" />
</svg>

<svg viewBox="0 0 48 48" version="1.1" id="svg18" xmlns="http://www.w3.org/2000/svg"><defs id="defs4"><style id="style2">.c{fill:none;stroke:#000;stroke-linecap:round;stroke-linejoin:round}</style></defs><g id="a" transform="matrix(.5335 0 0 .5335 11.842 3.685)" style="stroke:#fff;stroke-width:1.87439;stroke-linecap:round;stroke-miterlimit:4;stroke-dasharray:none;stroke-opacity:1;stroke-linejoin:round"><g id="g12" style="stroke:#fff;stroke-width:1.87439;stroke-linecap:round;stroke-miterlimit:4;stroke-dasharray:none;stroke-opacity:1;stroke-linejoin:round"><path class="c" id="line6" style="stroke:#fff;stroke-width:1.87439;stroke-linecap:round;stroke-miterlimit:4;stroke-dasharray:none;stroke-opacity:1;stroke-linejoin:round" d="M17.938 11.85h12.124"/><path class="c" id="line8" style="stroke:#fff;stroke-width:1.87439;stroke-linecap:round;stroke-miterlimit:4;stroke-dasharray:none;stroke-opacity:1;stroke-linejoin:round" d="M17.938 24h7.905"/><path class="c" id="line10" style="stroke:#fff;stroke-width:1.87439;stroke-linecap:round;stroke-miterlimit:4;stroke-dasharray:none;stroke-opacity:1;stroke-linejoin:round" d="M17.938 11.85v24.3"/></g></g><path class="a" d="M13.168 18.573H7.64a2.078 2.078 0 0 0-2.078 2.078v19.771A2.078 2.078 0 0 0 7.64 42.5h32.72a2.078 2.078 0 0 0 2.078-2.078V20.651a2.078 2.078 0 0 0-2.078-2.078h-5.284" id="path6" style="fill:none;stroke:#fff;stroke-linecap:round;stroke-linejoin:round;stroke-width:1;stroke-miterlimit:4;stroke-dasharray:none;stroke-opacity:1"/><rect class="a" x="14.1" y="35.763" width="20.044" height="3.327" rx=".421" id="rect8" style="fill:none;stroke:#fff;stroke-linecap:round;stroke-linejoin:round;stroke-width:1;stroke-miterlimit:4;stroke-dasharray:none;stroke-opacity:1"/><rect class="a" x="10.733" y="29.78" width="3.366" height="3.366" rx=".421" id="rect10" style="fill:none;stroke:#fff;stroke-linecap:round;stroke-linejoin:round;stroke-width:1;stroke-miterlimit:4;stroke-dasharray:none;stroke-opacity:1"/><rect class="a" x="16.586" y="29.78" width="3.366" height="3.366" rx=".421" id="rect12" style="fill:none;stroke:#fff;stroke-linecap:round;stroke-linejoin:round;stroke-width:1;stroke-miterlimit:4;stroke-dasharray:none;stroke-opacity:1"/><path class="a" d="M25.805 30.355v2.37a.42.42 0 0 1-.42.421H22.86a.42.42 0 0 1-.42-.42v-2.37" id="path14" style="fill:none;stroke:#fff;stroke-linecap:round;stroke-linejoin:round;stroke-width:1;stroke-miterlimit:4;stroke-dasharray:none;stroke-opacity:1"/><rect class="a" x="28.291" y="29.78" width="3.366" height="3.366" rx=".421" id="rect16" style="fill:none;stroke:#fff;stroke-linecap:round;stroke-linejoin:round;stroke-width:1;stroke-miterlimit:4;stroke-dasharray:none;stroke-opacity:1"/><rect class="a" x="34.144" y="29.78" width="3.366" height="3.366" rx=".421" id="rect18" style="fill:none;stroke:#fff;stroke-linecap:round;stroke-linejoin:round;stroke-width:1;stroke-miterlimit:4;stroke-dasharray:none;stroke-opacity:1"/><rect class="a" x="10.733" y="23.796" width="3.366" height="3.366" rx=".421" id="rect20" style="fill:none;stroke:#fff;stroke-linecap:round;stroke-linejoin:round;stroke-width:1;stroke-miterlimit:4;stroke-dasharray:none;stroke-opacity:1"/><path class="a" d="M18.275 27.163h-1.268a.42.42 0 0 1-.421-.421v-.875" id="path22" style="fill:none;stroke:#fff;stroke-linecap:round;stroke-linejoin:round;stroke-width:1;stroke-miterlimit:4;stroke-dasharray:none;stroke-opacity:1"/><path class="a" d="M31.658 25.867v.875a.42.42 0 0 1-.421.42h-1.269" id="path24" style="fill:none;stroke:#fff;stroke-linecap:round;stroke-linejoin:round;stroke-width:1;stroke-miterlimit:4;stroke-dasharray:none;stroke-opacity:1"/><rect class="a" x="34.144" y="23.796" width="3.366" height="3.366" rx=".421" id="rect26" style="fill:none;stroke:#fff;stroke-linecap:round;stroke-linejoin:round;stroke-width:1;stroke-miterlimit:4;stroke-dasharray:none;stroke-opacity:1"/><path class="a" d="m34.252 23.878-10.13 7.768-10.13-7.768a2.104 2.104 0 0 1-.825-1.67V7.183A1.683 1.683 0 0 1 14.851 5.5h18.542a1.683 1.683 0 0 1 1.683 1.683v15.025a2.104 2.104 0 0 1-.824 1.67z" id="path28" style="fill:none;stroke:#fff;stroke-linecap:round;stroke-linejoin:round;stroke-width:1;stroke-miterlimit:4;stroke-dasharray:none;stroke-opacity:1"/></svg>
